svgs/sharp-light/person-running-fast.svg

<svg xmlns="http://www.w3.org/2000/svg" viewBox="0 0 512 512"><!--! Font Awesome Pro 6.6.0 by @fontawesome - https://fontawesome.com License - https://fontawesome.com/license (Commercial License) Copyright 2024 Fonticons, Inc. --><path d="M376 80a24 24 0 1 0 0-48 24 24 0 1 0 0 48zm0-80a56 56 0 1 1 0 112A56 56 0 1 1 376 0zM217.4 112l6.6 0 48 0 2.2 0 2.2 .6 112 32 8.5 2.4 2.4 8.5L428.1 256l67.9 0 16 0 0 32-16 0-80 0-12.1 0-3.3-11.6-20.3-70.9L343.2 317.1c-.2 .5-.3 .9-.5 1.3l49.2 27.7 11.7 6.6-4.5 12.7L347.3 512l-33.9 0 51.1-144.6-93.3-52.5c-20-11.3-29.3-35.2-22-57l36.4-109.3L269.8 144l-39.1 0-59.3 59.3s0 0 0 0l-22.6-22.6s0 0 0 0l64-64 4.7-4.7zm99 45.3L279.5 268c-2.4 7.3 .7 15.2 7.3 19l27.5 15.4 44.3-133-42.2-12.1zM226 314.1c5.9 10 14.1 18.7 24.1 25.4l-27.4 66.6-4.1 9.9L208 416l-96 0-16 0 0-32 16 0 85.3 0L226 314.1zM16 95.8l128 0 16 0 0 32-16 0-128 0-16 0 0-32 16 0zm-16 64l16 0 64 0 16 0 0 32-16 0-64 0-16 0 0-32zm16 64l128 0 16 0 0 32-16 0-128 0-16 0 0-32 16 0z"/></svg>

<svg xmlns="http://www.w3.org/2000/svg" viewBox="0 0 512 512"><!--! Font Awesome Pro 6.4.0 by @fontawesome - https://fontawesome.com License - https://fontawesome.com/license (Commercial License) Copyright 2023 Fonticons, Inc. --><path d="M376 80a24 24 0 1 0 0-48 24 24 0 1 0 0 48zm0-80a56 56 0 1 1 0 112A56 56 0 1 1 376 0zM217.4 112H224h48 2.2l2.2 .6 112 32 8.5 2.4 2.4 8.5L428.1 256H496h16v32H496 416 403.9l-3.3-11.6-20.3-70.9L343.2 317.1c-.2 .5-.3 .9-.5 1.3l49.2 27.7 11.7 6.6-4.5 12.7L347.3 512H313.4l51.1-144.6-93.3-52.5c-20-11.3-29.3-35.2-22-57l36.4-109.3L269.8 144H230.6l-59.3 59.3 0 0-22.6-22.6 0 0 64-64 4.7-4.7zm99 45.3L279.5 268c-2.4 7.3 .7 15.2 7.3 19l27.5 15.4 44.3-133-42.2-12.1zM226 314.1c5.9 10 14.1 18.7 24.1 25.4l-27.4 66.6-4.1 9.9H208 112 96V384h16 85.3L226 314.1zM16 95.8H144h16v32H144 16 0v-32H16zm-16 64H16 80 96v32H80 16 0v-32zm16 64H144h16v32H144 16 0v-32H16z"/></svg>
